static/assets/emoji/svg/1f530.svg

<svg enable-background="new 0 0 128 128" viewBox="0 0 128 128" xmlns="http://www.w3.org/2000/svg"><linearGradient id="b" x1="40" x2="40" y1="4" y2="124.2" gradientUnits="userSpaceOnUse"><stop stop-color="#ff0" offset="0"/><stop stop-color="#FFD600" offset="1"/></linearGradient><path d="m61.5 34-39-29.12c-2.62-2.09-6.5-0.23-6.5 3.13v82.07c0 1.22 0.55 2.36 1.5 3.12l44 29.92c0.73 0.58 1.61 0.88 2.5 0.88v-89.12c-0.88 0-1.77-0.29-2.5-0.88z" fill="url(#b)"/><linearGradient id="a" x1="88" x2="88" y1="4" y2="124.2" gradientUnits="userSpaceOnUse"><stop stop-color="#4DB6AC" offset="0"/><stop stop-color="#2BA296" offset=".4722"/><stop stop-color="#00897B" offset="1"/></linearGradient><path d="m105.5 4.88-39 29.12c-0.73 0.58-1.61 0.88-2.5 0.88v89.12c0.88 0 1.77-0.29 2.5-0.88l44-29.92c0.95-0.76 1.5-1.91 1.5-3.12v-82.07c0-3.36-3.88-5.22-6.5-3.13z" fill="url(#a)"/><g opacity=".2"><path d="m20.02 7c0.22 0 0.42 0.07 0.61 0.23l0.08 0.06 38.97 29.09c0.41 0.32 0.86 0.6 1.33 0.82v81.95l-41.69-28.34c-0.2-0.19-0.32-0.45-0.32-0.73v-82.07c0-0.7 0.6-1.01 1.02-1.01m0-3c-2.07 0-4.02 1.63-4.02 4.01v82.07c0 1.22 0.55 2.36 1.5 3.12l44 29.92c0.73 0.58 1.61 0.88 2.5 0.88v-89.12c-0.88 0-1.77-0.29-2.5-0.88l-39-29.12c-0.76-0.61-1.63-0.88-2.48-0.88z" fill="#424242"/></g><g opacity=".2"><path d="m107.98 7c0.42 0 1.02 0.31 1.02 1.01v82.07c0 0.28-0.11 0.54-0.32 0.73l-41.68 28.34v-81.95c0.47-0.22 0.92-0.5 1.33-0.82l38.97-29.09 0.08-0.06c0.19-0.16 0.38-0.23 0.6-0.23m0-3c-0.85 0-1.72 0.27-2.48 0.88l-39 29.12c-0.73 0.58-1.61 0.88-2.5 0.88v89.12c0.88 0 1.77-0.29 2.5-0.88l44-29.92c0.95-0.76 1.5-1.91 1.5-3.12v-82.07c0-2.38-1.95-4.01-4.02-4.01z" fill="#424242"/></g></svg>

<svg viewBox="0 0 128 128" xmlns="http://www.w3.org/2000/svg"><linearGradient id="a" x1="40" x2="40" y1="4" y2="124.2" gradientUnits="userSpaceOnUse"><stop stop-color="#ff0" offset="0"/><stop stop-color="#FFD600" offset="1"/></linearGradient><path d="M61.5 34l-39-29.12C19.88 2.79 16 4.65 16 8.01v82.07c0 1.22.55 2.36 1.5 3.12l44 29.92c.73.58 1.61.88 2.5.88V34.88c-.88 0-1.77-.29-2.5-.88z" fill="url(#a)"/><linearGradient id="b" x1="88" x2="88" y1="4" y2="124.2" gradientUnits="userSpaceOnUse"><stop stop-color="#4DB6AC" offset="0"/><stop stop-color="#2BA296" offset=".472"/><stop stop-color="#00897B" offset="1"/></linearGradient><path d="M105.5 4.88L66.5 34c-.73.58-1.61.88-2.5.88V124c.88 0 1.77-.29 2.5-.88l44-29.92c.95-.76 1.5-1.91 1.5-3.12V8.01c0-3.36-3.88-5.22-6.5-3.13z" fill="url(#b)"/><path d="M20.02 7c.22 0 .42.07.61.23l.08.06 38.97 29.09a7 7 0 0 0 1.33.82v81.95L19.32 90.81c-.2-.19-.32-.45-.32-.73V8.01c0-.7.6-1.01 1.02-1.01m0-3C17.95 4 16 5.63 16 8.01v82.07c0 1.22.55 2.36 1.5 3.12l44 29.92c.73.58 1.61.88 2.5.88V34.88c-.88 0-1.77-.29-2.5-.88l-39-29.12c-.76-.61-1.63-.88-2.48-.88zM107.98 7c.42 0 1.02.31 1.02 1.01v82.07c0 .28-.11.54-.32.73L67 119.15V37.2a7 7 0 0 0 1.33-.82L107.3 7.29l.08-.06c.19-.16.38-.23.6-.23m0-3c-.85 0-1.72.27-2.48.88L66.5 34c-.73.58-1.61.88-2.5.88V124c.88 0 1.77-.29 2.5-.88l44-29.92c.95-.76 1.5-1.91 1.5-3.12V8.01c0-2.38-1.95-4.01-4.02-4.01z" fill="#424242" opacity=".2"/></svg>
